X: 13311
T: Flamenco Fling
R: reel
M: 4/4
K: Gmajor
B,DG,B, DGBd|e2^ce dBGB|FADF CDFA|BcBc AFDC|
B,DG,B, DGBd|e2^ce dBGB|AFDc BdAc|BGGF G4|
B,DG,B, DGBd|e2^ce dBGB|FADF CDFA|BcBc BcAD|
B,DG,B, DGBd|e2^ce dBGB|AFDc BdAc|BGGF G4||
|:Bcdg efgd|c/c/cac bcac|fggf dcaf|gbaf gedc|
Bcdg efgd|c/c/cac bcac|fggf dcaf|1 gbaf g4:|2 gbaf gdef||
gB2B- Bgfg|ec2c- cBAG|FA^c^d fb^ab|^ge2e- eefg|
aeae'- e'2ea|gege'- e'2ef|ggga- ag2f-|f4- fgfg|
eB2B- Bgfg|ec2c- cBAG|FA^c^d fb^ab|^ge2e- eefg|
aeae'- e'2ea|gege'- e'2ef|ggga- ag2f-|f8|
[M:4/4]gBB/B/B Bdeg|[M:6/8] fcc/c/c c2|[M:4/4]fcc/c/c cdef|[M:6/8]eBB/B/B B2|
gBB/B/B Bdeg|fcc/c/c cBAG|F2EE ^D2C2|B,8||

